dist/images/Icon material-slow-motion-video.svg

<svg width="18" height="18" viewBox="0 0 18 18" fill="none" xmlns="http://www.w3.org/2000/svg">
<path d="M9.925 7.001L7.173 4.925V13.066L9.925 10.999L12.587 8.999L9.925 7.001ZM9.925 7.001L7.173 4.925V13.066L9.925 10.999L12.587 8.999L9.925 7.001ZM9.925 7.001L7.173 4.925V13.066L9.925 10.999L12.587 8.999L9.925 7.001ZM8.075 1.825V0C6.31255 0.177809 4.64227 0.873757 3.275 2L4.556 3.292C5.57473 2.49373 6.79091 1.98673 8.075 1.825ZM3.284 4.568L1.994 3.283C0.870124 4.65573 0.176472 6.32968 0 8.095H1.825C1.98484 6.8094 2.48892 5.59083 3.284 4.568ZM1.825 9.905H0C0.176472 11.6703 0.870124 13.3443 1.994 14.717L3.284 13.425C2.48717 12.4059 1.9828 11.189 1.825 9.905ZM3.278 16.005C4.64617 17.1297 6.31598 17.8255 8.078 18.005V16.173C6.79411 16.0119 5.57795 15.5056 4.559 14.708L3.275 16.001L3.278 16.005ZM18.003 9.005C18.0037 11.2369 17.1796 13.3902 15.6891 15.0515C14.1986 16.7127 12.1469 17.7646 9.928 18.005V16.173C11.6657 15.94 13.2598 15.0842 14.4141 13.7645C15.5684 12.4448 16.2045 10.751 16.2041 8.99769C16.2037 7.24441 15.567 5.55086 14.4121 4.23165C13.2573 2.91245 11.6628 2.05728 9.925 1.825V0C12.1439 0.240448 14.1956 1.29232 15.6861 2.95354C17.1766 4.61476 18.0007 6.76815 18 9L18.003 9.005Z" fill="white"/>
</svg>

<svg width="18" height="18" fill="none" xmlns="http://www.w3.org/2000/svg"><path d="M9.925 7.001 7.173 4.925v8.141l2.752-2.067 2.662-2-2.662-1.998Zm0 0L7.173 4.925v8.141l2.752-2.067 2.662-2-2.662-1.998Zm0 0L7.173 4.925v8.141l2.752-2.067 2.662-2-2.662-1.998Zm-1.85-5.176V0a8.965 8.965 0 0 0-4.8 2l1.281 1.292a7.155 7.155 0 0 1 3.519-1.467ZM3.284 4.568l-1.29-1.285A9.011 9.011 0 0 0 0 8.095h1.825a7.193 7.193 0 0 1 1.459-3.527ZM1.825 9.905H0a9.011 9.011 0 0 0 1.994 4.812l1.29-1.292a7.126 7.126 0 0 1-1.459-3.52Zm1.453 6.1a8.994 8.994 0 0 0 4.8 2v-1.832a7.154 7.154 0 0 1-3.519-1.465l-1.284 1.293.003.004Zm14.725-7a9.05 9.05 0 0 1-8.075 9v-1.832a7.238 7.238 0 0 0-.003-14.348V0A9.05 9.05 0 0 1 18 9l.003.005Z" fill="#fff"/></svg>
